X:1
T:Title
%%score { ( 1 3 ) | 2 }
L:1/8
Q:1/4=106
M:3/4
K:E
V:1 treble nm="Grand Piano"
V:3 treble 
V:2 bass 
V:1
 [B,EG]2 [CEA]2 [B,EG]2 | [^A,EF]6 | [A,DF]2 [B,DG]2 [A,DF]2 | [G,E]6 | [G,B,E]2 [A,B,F]2 [B,EG]2 | %5
w: W.~Blow * *|||||
 [A,EA]4 [B,EG]2 | [Ec]4 F2 | B6 | B2 A2 G2 | [FA]4 [DA]2 | A2 G2 [A,DF]2 | [G,E]4 [B,E]2 | %12
w: |||||||
 G2 F2 C2 | E4 D2 | E6 |] %15
w: |||
V:2
 E,2 E,2 E,2 | C,6 | B,,2 B,,2 B,,2 | E,6 | E,2 D,2 =D,2 | C,4 E,2 | [A,,A,]4 [A,B,D]2 | [G,B,E]6 | %8
 [G,B,E]2 [F,B,D]2 [E,B,E]2 | [D,B,]4 [B,,B,]2 | [E,B,E]4 B,,2 | C,4 G,,2 | A,,4 [A,,F,]2 | %13
 [B,,G,B,]4 [B,,F,B,]2 | [E,G,B,]6 |] %15
V:3
 x6 | x6 | x6 | x6 | x6 | x6 | x6 | x6 | x6 | x6 | x6 | x6 | [A,C]4 z2 | x6 | x6 |] %15

